src/images_karasa_jaga_svg/cmd/sc_starshapes.doorplate.svg

<svg height="16" viewBox="0 0 16 16" width="16" xmlns="http://www.w3.org/2000/svg" xmlns:xlink="http://www.w3.org/1999/xlink"><linearGradient id="a" gradientUnits="userSpaceOnUse" x1="64" x2="64" y1="128" y2="0"><stop offset="0" stop-color="#fff"/><stop offset=".59375" stop-color="#fff"/><stop offset=".84375" stop-color="#f1f1f1"/><stop offset=".90625" stop-color="#eaeaea"/><stop offset="1" stop-color="#dfdfdf"/></linearGradient><linearGradient id="b" gradientUnits="userSpaceOnUse" x1="0" x2="128" y1="64.25" y2="64.25"><stop offset="0" stop-color="#7c9fcf"/><stop offset=".5" stop-color="#7c9ece"/><stop offset="1" stop-color="#7b9dcf"/></linearGradient><g transform="matrix(.125 0 0 .125 0 -.03125)"><path d="m31.71875 0c.146115 1.02314.248032 2.0681159.28125 3.125v.875c.000002 15.456-12.544 28-28 28-1.3610699 0-2.6906713-.09328-4-.28125v64.5625c1.3093287-.187973 2.6389301-.28125 4-.28125 15.146841.000003 27.524167 11.98563 28 27.125v.875c0 1.53409-.106013 3.03271-.34375 4.5h64.6875c-.23774-1.46729-.298234-2.96659-.34375-4.5-.5-17.09493 11.17146-27.71875 32-27.71875v-64.5625c-1.30933.187973-2.63893.28125-4 .28125-15.456-.000001-28-12.544-28-28 0-1.3610699.093277-2.6906713.28125-4z" fill="url(#b)"/><path d="m39.78125 8c-1.844906 16.681517-15.099733 29.936345-31.78125 31.78125v48.46875c16.65552 1.841559 29.894807 14.99378 31.75 31.75h48.46875c2.03779-17.4046 14.51131-30.167042 31.78125-31.9375v-48.28125c-16.68152-1.844907-29.936345-15.099733-31.78125-31.78125z" fill="url(#a)" fill-rule="evenodd"/></g></svg>

<?xml version="1.0" encoding="UTF-8" standalone="no"?>
<!-- Created with Inkscape (http://www.inkscape.org/) -->

<svg
   xmlns:dc="http://purl.org/dc/elements/1.1/"
   xmlns:cc="http://creativecommons.org/ns#"
   xmlns:rdf="http://www.w3.org/1999/02/22-rdf-syntax-ns#"
   xmlns:svg="http://www.w3.org/2000/svg"
   xmlns="http://www.w3.org/2000/svg"
   xmlns:xlink="http://www.w3.org/1999/xlink"
   xmlns:sodipodi="http://sodipodi.sourceforge.net/DTD/sodipodi-0.dtd"
   xmlns:inkscape="http://www.inkscape.org/namespaces/inkscape"
   version="1.1"
   id="svg2"
   width="128"
   height="128"
   viewBox="0 0 128 128"
   sodipodi:docname="sc_starshapes.doorplate.svg"
   inkscape:export-filename="/home/rizmut/Dokumen/Rizmut/Github/libreoffice-style-karasa-jaga/build/images_karasa_jaga/cmd/sc_starshapes.doorplate.png"
   inkscape:export-xdpi="12"
   inkscape:export-ydpi="12"
   inkscape:version="0.92.3 (unknown)">
  <metadata
     id="metadata8">
    <rdf:RDF>
      <cc:Work
         rdf:about="">
        <dc:format>image/svg+xml</dc:format>
        <dc:type
           rdf:resource="http://purl.org/dc/dcmitype/StillImage" />
        <dc:title></dc:title>
      </cc:Work>
    </rdf:RDF>
  </metadata>
  <defs
     id="defs6">
    <linearGradient
       id="linearGradient3369">
      <stop
         id="stop3372"
         offset="0"
         style="stop-color:#ffffff;stop-opacity:1;" />
      <stop
         style="stop-color:#ffffff;stop-opacity:1;"
         offset="0.59375"
         id="stop3374" />
      <stop
         style="stop-color:#f1f1f1;stop-opacity:1;"
         offset="0.84375"
         id="stop3376" />
      <stop
         id="stop3378"
         offset="0.90625"
         style="stop-color:#eaeaea;stop-opacity:1;" />
      <stop
         id="stop3384"
         offset="1"
         style="stop-color:#dfdfdf;stop-opacity:1;" />
    </linearGradient>
    <linearGradient
       id="linearGradient7422">
      <stop
         style="stop-color:#7c9fcf;stop-opacity:1"
         offset="0"
         id="stop7424" />
      <stop
         id="stop5348"
         offset="0.5"
         style="stop-color:#7c9ece;stop-opacity:1" />
      <stop
         id="stop7426"
         offset="1"
         style="stop-color:#7b9dcf;stop-opacity:1" />
    </linearGradient>
    <linearGradient
       inkscape:collect="always"
       xlink:href="#linearGradient3369"
       id="linearGradient2080"
       x1="64"
       y1="128"
       x2="64"
       y2="0"
       gradientUnits="userSpaceOnUse" />
    <linearGradient
       inkscape:collect="always"
       xlink:href="#linearGradient7422"
       id="linearGradient2088"
       x1="0"
       y1="64.25"
       x2="128"
       y2="64.25"
       gradientUnits="userSpaceOnUse" />
  </defs>
  <sodipodi:namedview
     pagecolor="#ffffff"
     bordercolor="#666666"
     borderopacity="1"
     objecttolerance="10"
     gridtolerance="10"
     guidetolerance="10"
     inkscape:pageopacity="0"
     inkscape:pageshadow="2"
     inkscape:window-width="1366"
     inkscape:window-height="706"
     id="namedview4"
     showgrid="true"
     inkscape:snap-page="true"
     inkscape:snap-global="true"
     inkscape:zoom="1.4142136"
     inkscape:cx="113.72534"
     inkscape:cy="38.811242"
     inkscape:window-x="0"
     inkscape:window-y="0"
     inkscape:window-maximized="1"
     inkscape:current-layer="svg2"
     inkscape:snap-smooth-nodes="true">
    <inkscape:grid
       type="xygrid"
       id="grid27"
       spacingx="8"
       spacingy="8"
       empspacing="2" />
  </sodipodi:namedview>
  <path
     inkscape:connector-curvature="0"
     style="fill:url(#linearGradient2088);fill-opacity:1.0;fill-rule:nonzero;stroke:none;stroke-width:2;stroke-linecap:round;stroke-linejoin:round;stroke-miterlimit:4;stroke-dasharray:none;stroke-dashoffset:4;stroke-opacity:1"
     d="M 31.71875,0 C 31.864865,1.02314 31.966782,2.0681159 32,3.125 V 4 c 2e-6,15.456 -12.544,28 -28,28 -1.3610699,0 -2.6906713,-0.09328 -4,-0.28125 v 64.5625 C 1.3093287,96.093277 2.6389301,96 4,96 c 15.146841,3e-6 27.524167,11.98563 28,27.125 V 124 c 0,1.53409 -0.106013,3.03271 -0.34375,4.5 h 64.6875 C 96.10601,127.03271 96.045516,125.53341 96,124 95.5,106.90507 107.17146,96.28125 128,96.28125 V 31.71875 C 126.69067,31.906723 125.36107,32 124,32 108.544,31.999999 96,19.456 96,4 96,2.6389301 96.093277,1.3093287 96.28125,0 Z"
     id="rect2324"
     sodipodi:nodetypes="cccsccsccccsccsscc" />
  <path
     inkscape:connector-curvature="0"
     style="fill:url(#linearGradient2080);fill-opacity:1;fill-rule:evenodd;stroke:none;stroke-width:8;stroke-linecap:round;stroke-linejoin:round;stroke-miterlimit:4;stroke-dasharray:none;stroke-opacity:1"
     d="M 39.78125,8 C 37.936344,24.681517 24.681517,37.936345 8,39.78125 V 88.25 C 24.65552,90.091559 37.894807,103.24378 39.75,120 H 88.21875 C 90.25654,102.5954 102.73006,89.832958 120,88.0625 V 39.78125 C 103.31848,37.936343 90.063655,24.681517 88.21875,8 Z"
     id="rect2326"
     sodipodi:nodetypes="ccccccccc" />
</svg>
